!!!!SEGMENT: pl-kk--kk-i-316--002_anonim--boze-wieczny-boze-zywy.krn
!!!cenid: 17xx:2173
!!!COM: Anonim
!!!COM-rismID: pe30004985
!!!CDT:
!!!CNT:
!!!OTL: Boże wieczny Boże żywy
!!!PDT:
!!!AGN: Sacred
!!!YEC: Copyright 2022 Narodowy Instytut Fryderyka Chopina (https://polishscores.org)
!!!YEM: License CC-BY-4.0 (https://creativecommons.org/licenses/by/4.0)
!!!SMS-siglum: PL-Kk
!!!SMS-shelfmark: Kk.I.316
!!!SMS-shelfwork: 002 W
!!!SMS-variant:
!!!SMS-altvar:
!!!NIFC-rismSourceID: 1001146206
!!!NIFC-rismChildID: 1001146213
!!!NIFC-islandoraID: pl-kk:5301
!!!URL-pdf-islandora: https://repozytorium.nifc.pl/islandora/object/pl-kk%3A5301/datastream/PDF/view
!!!URL-scan: https://polish.musicsources.pl/pl/lokalizacje/galeria/rekopisy/5935 @EN{Scan on Polish Music Sources Website} @PL{Skany w portalu Dziedzictwo Muzyki Polskiej w otwartym dostępie}
!!!IIIF:
!!!ONB-nifc: UWAGA: utwory w zbiorze: 1. Zdrowaś bądź Maria, 2. Boże wieczny Boże żywy
!!!AIN: 1 alto 1 cello 1 empty 1 tenor 2 violn 2 vox
!!!key:
**kern	**fba	**kern	**kern	**kern	**text	**text	**text	**text	**text	**kern	**text	**text	**text	**text	**text	**kern	**text	**text	**text	**text	**text	**kern	**text	**text	**text	**text	**text	**kern	**text	**text	**text	**text	**text
*part8	*	*part7	*part6	*part5	*	*	*	*	*	*part4	*	*	*	*	*	*part3	*	*	*	*	*	*part2	*	*	*	*	*	*part1	*	*	*	*	*
*staff8	*	*staff7	*staff6	*staff5	*	*	*	*	*	*staff4	*	*	*	*	*	*staff3	*	*	*	*	*	*staff2	*	*	*	*	*	*staff1	*	*	*	*	*
*Icello	*	*Ivioln	*Ivioln	*Iempty	*	*	*	*	*	*Itenor	*	*	*	*	*	*Ialto	*	*	*	*	*	*Ivox	*	*	*	*	*	*Ivox	*	*	*	*	*
*I"Organo è Violone	*	*I"Violino 2do.	*I"Violino 1mo.	*I"Baſso.	*	*	*	*	*	*I"Tenore	*	*	*	*	*	*I"Alto.	*	*	*	*	*	*I"Canto 2do.	*	*	*	*	*	*I"Canto. 1mo.	*	*	*	*	*
*I'org	*	*I'vl 2	*I'vl 1	*I'B	*	*	*	*	*	*I'T	*	*	*	*	*	*I'A	*	*	*	*	*	*I'S 2	*	*	*	*	*	*I'S 1	*	*	*	*	*
*clefF4	*	*clefG2	*clefG2	*clefF4	*	*	*	*	*	*clefC4	*	*	*	*	*	*clefC3	*	*	*	*	*	*clefC1	*	*	*	*	*	*clefC1	*	*	*	*	*
*k[b-]	*	*k[b-]	*k[b-]	*k[b-]	*	*	*	*	*	*k[b-]	*	*	*	*	*	*k[b-]	*	*	*	*	*	*k[b-]	*	*	*	*	*	*k[b-]	*	*	*	*	*
*d:	*	*d:	*d:	*d:	*	*	*	*	*	*d:	*	*	*	*	*	*d:	*	*	*	*	*	*d:	*	*	*	*	*	*d:	*	*	*	*	*
*M3/2	*	*M3/2	*M3/2	*M3/2	*	*	*	*	*	*M3/2	*	*	*	*	*	*M3/2	*	*	*	*	*	*M3/2	*	*	*	*	*	*M3/2	*	*	*	*	*
=1	=1	=1	=1	=1	=1	=1	=1	=1	=1	=1	=1	=1	=1	=1	=1	=1	=1	=1	=1	=1	=1	=1	=1	=1	=1	=1	=1	=1	=1	=1	=1	=1	=1
*2\right	*	*	*2\right	*2\right	*	*	*	*	*	*2\right	*	*	*	*	*	*2\right	*	*	*	*	*	*2\right	*	*	*	*	*	*2\right	*	*	*	*	*
!LO:TX:b:t=Boże wieczny.	!	!	!	!	!	!	!	!	!	!	!	!	!	!	!	!	!	!	!	!	!	!	!	!	!	!	!	!	!	!	!	!	!
!LO:TX:t=P:problem=podwojony znak przykluczowy	!	!LO:TX:b:t=Boże wieczny.	!LO:TX:b:t=Boże wieczny.	!LO:TX:t=P:problem=podwojony znak przykluczowy	!	!	!	!	!	!	!	!	!	!	!	!	!	!	!	!	!	!	!	!	!	!	!	!	!	!	!	!	!
2G\	-	2g/	2bb-X\	2G\	Bo-	Kto-	O	U-	A-	2d\	Bo-	Kto-	O	U-	A-	2b-X\	Bo-	Kto-	O	U-	A-	2g\	Bo-	Kto-	O	U-	A-	2g\	Bo-	Kto-	O	U-	A-
1F\	6	1a/	1aa\	1F\	-Że,	-ryś	nie-	-słysZ	-men	1d\	-Że,	-ryś	nie-	-słysZ	-men	1a\	-Że,	-ryś	nie-	-słysZ	-men	1a\	-Że,	-ryś	nie-	-słysZ	-men	1a\	-Że,	-ryś	nie-	-słysZ	-men
=2	=2	=2	=2	=2	=2	=2	=2	=2	=2	=2	=2	=2	=2	=2	=2	=2	=2	=2	=2	=2	=2	=2	=2	=2	=2	=2	=2	=2	=2	=2	=2	=2	=2
*	*	*2\right	*	*	*	*	*	*	*	*	*	*	*	*	*	*	*	*	*	*	*	*	*	*	*	*	*	*	*	*	*	*	*
2En\	6\	2cc#X\	2gg\	2En\	wiecZ-	iest	-bies-	płacz	a-	2e\	wiecZ-	iest	-bies-	płacz	a-	2g\	wiecZ-	iest	-bies-	płacz	a-	2cc#X\	wiecZ-	iest	-bies-	płacz	a-	2cc#X\	wiecZ-	iest	-bies-	płacz	a-
1D\	.	1dd\	1ffn\	1D\	-ny	na	-kie	stwo-	-men	1A\	-ny	na	-kie	stwo-	-men	1f\	-ny	na	-kie	stwo-	-men	1dd\	-ny	na	-kie	stwo-	-men	1dd\	-ny	na	-kie	stwo-	-men
=3	=3	=3	=3	=3	=3	=3	=3	=3	=3	=3	=3	=3	=3	=3	=3	=3	=3	=3	=3	=3	=3	=3	=3	=3	=3	=3	=3	=3	=3	=3	=3	=3	=3
2C#X/	6	2ee\	1aa\	(2C#X/	Bo-	wy-	go-	-rZe-	ra-	(2c#X\	Bo-	wy-	Go-	-rZe-	ra-	1a\	Bo-	wy-	Go-	-rZe-	ra-	(2ee\	Bo-	wy-	Go-	-rZe-	ra-	(2een\	Bo-	wy-	Go-	-rZe-	ra-
2D/	.	2dd\	.	2D/)	.	.	.	.	.	2f\)	.	.	.	.	.	.	.	.	.	.	.	2dd\)	.	.	.	.	.	2dd\)	.	.	.	.	.
2AA/	#	2cc#X\	2aa\	2AA/	-Że	-so-	-ry	-nia	-cZysZ	2e\	-Że	-so-	-ry	-nia	-cZysZ	2a\	-Że	-so-	-ry	-nia	-cZysZ	2cc#X\	-Że	-so-	-ry	-nia	-cZysZ	2cc#X\	-Ze	-so-	-ry	-nia	-cZysZ
=4	=4	=4	=4	=4	=4	=4	=4	=4	=4	=4	=4	=4	=4	=4	=4	=4	=4	=4	=4	=4	=4	=4	=4	=4	=4	=4	=4	=4	=4	=4	=4	=4	=4
2BB-X/	7	2dd\	4aa\	2BB-X/	Zy-	-kos-	sro-	Twe-	to	(4f\	Zy-	-kos-	sro-	Twe-	to	(4a\	Zy-	-kos-	sro-	Twe-	to	2dd\	Zy-	-koś-	sro-	twe-	to	2dd\	Zy-	-koś-	sro-	twe-	to
.	6	.	4gg\	.	.	.	.	.	.	4d\)	.	.	.	.	.	4g\)	.	.	.	.	.	.	.	.	.	.	.	.	.	.	.	.	.
1AA/	#	1a/	1aa\	1AA/	-wy,	-ci	-gie	-go,	dać,	1c#X\,	-wy,	-ci,	-gie	-go,	dać,	1a\	-wy,	-ci,	-gie	-go	dać,	1a\	-wy	-ći,	-gie	-go,	dać	1a\	-wy	-ci,	-gie	-go,	dać
=5	=5	=5	=5	=5	=5	=5	=5	=5	=5	=5	=5	=5	=5	=5	=5	=5	=5	=5	=5	=5	=5	=5	=5	=5	=5	=5	=5	=5	=5	=5	=5	=5	=5
2D\	-	2dd\	2ffn\	2D\	Od-	Schyl	Spuść-	day	byś-	2B-\	Od-	Schyl	Spuść-	day	byś-	2dn\	Od-	Schyl	Spuść-	day	byś-	2b-\	Od-	Schyl	Spuść-	day	byś-	2b-\	Od-	Schyl	Spusc-	day	byś-
1E\	6	2.ccn\	1gg\	1E\	-Ku-	nie-	-cie	do-	-my	1G/	-Ku-	nie-	-cie	do-	-my	1g\	-Ku-	nie-	-cie	do-	-my	(2.ccn\	-Ku-	nie-	-cie	do-	-my	(2.ccn\	-Ku-	nie-	-cie	do-	-my
.	n	4b-X\	.	.	.	.	.	.	.	.	.	.	.	.	.	.	.	.	.	.	.	4b-X\)	.	.	.	.	.	4b-X\)	.	.	.	.	.
=6	=6	=6	=6	=6	=6	=6	=6	=6	=6	=6	=6	=6	=6	=6	=6	=6	=6	=6	=6	=6	=6	=6	=6	=6	=6	=6	=6	=6	=6	=6	=6	=6	=6
2F\	.	4a/	2aa\	2F\	-pi-	-ba	ro-	-cZe-	sie	2c\	-pi-	-ba	ro-	-cZe-	sie	2a\	-pi-	-ba	ro-	-cZe-	sie	(4a\	-pi-	-ba	ro-	-cZe-	sie	(4a\	-pi-	-ba	ro-	-cZe-	sie
.	.	4b-/	.	.	.	.	.	.	.	.	.	.	.	.	.	.	.	.	.	.	.	4b-\)	.	.	.	.	.	4b-\)	.	.	.	.	.
4E\	6	1cc\	4gg\	4E\	-cie-	u-	-sę	-kac	tam	1e\	-cie-	u-	-sę	-kac	tam	(4g\	-cie-	u-	-sę	-kac	tam	1cc\	-cie-	u-	-sę	-kac	tam	1cc\	-cie-	u-	-sę	-kac	tam
!	!	!	!LO:TX:t=P:problem=kreska pseudotaktowa	!	!	!	!	!	!	!	!	!	!	!	!	!	!	!	!	!	!	!	!	!	!	!	!	!	!	!	!	!	!
4C\	_	.	4ee\	4C\	.	.	.	.	.	.	.	.	.	.	.	4e\	.	.	.	.	.	.	.	.	.	.	.	.	.	.	.	.	.
4E\	.	.	4gg\	4E\	.	.	.	.	.	.	.	.	.	.	.	4g\)	.	.	.	.	.	.	.	.	.	.	.	.	.	.	.	.	.
4F#X\	7 5	.	4aa\	4F#X\	.	.	.	.	.	.	.	.	.	.	.	4a\	.	.	.	.	.	.	.	.	.	.	.	.	.	.	.	.	.
=7	=7	=7	=7	=7	=7	=7	=7	=7	=7	=7	=7	=7	=7	=7	=7	=7	=7	=7	=7	=7	=7	=7	=7	=7	=7	=7	=7	=7	=7	=7	=7	=7	=7
*M2/2	*	*M2/2	*M2/2	*M2/2	*	*	*	*	*	*M2/2	*	*	*	*	*	*M2/2	*	*	*	*	*	*M2/2	*	*	*	*	*	*M2/2	*	*	*	*	*
*met(C|)	*	*met(C|)	*met(C|)	*met(C|)	*	*	*	*	*	*met(C|)	*	*	*	*	*	*met(C|)	*	*	*	*	*	*met(C|)	*	*	*	*	*	*met(C|)	*	*	*	*	*
2G\	-	2b-X/	2gg\	2G\	-lu	ZycZ	na	we-	mog-	2d\	-lu	ZycZ	na	we-	mog-	2g\	-lu	ZycZ	na	we-	mog-	2b-\	-lu	ZycZ	na	we-	mog-	2b-X\	-lu	ŻycZ	na	we-	mog-
*	*	*	*	*	*	*	*	*	*	*	*	*	*	*	*	*	*	*	*	*	*	*custos:b-	*	*	*	*	*	*custos:b-	*	*	*	*	*
2F#X\	6	2a/	2dd\	2F#X\	pra-	li-	u-	-so-	-li	2d\	pra-	li-	u-	-so-	-li	2d\	pra-	li-	u-	-so-	-li	2a\	pra-	li-	u-	-so-	-li	2a\	pra-	li-	u-	-so-	-li
!	!	!	!	!LO:LB:g=original	!	!	!	!	!	!	!	!	!	!	!	!	!	!	!	!	!	!LO:LB:g=original	!	!	!	!	!	!LO:LB:g=original	!	!	!	!	!
=8	=8	=8	=8	=8	=8	=8	=8	=8	=8	=8	=8	=8	=8	=8	=8	=8	=8	=8	=8	=8	=8	=8	=8	=8	=8	=8	=8	=8	=8	=8	=8	=8	=8
1G\	-	1b-\T	1gg\	1G\	-wdzi-	-to-	-bo-	-łe-	dos-	1d\	-wdzi-	-to-	-bo-	-łe-	dos-	1g\	-wdzi-	-to-	-bo-	-łe-	dos-	1b-\	-wdzi-	-to-	-bo-	-łe-	dos-	1b-\	-wdzi-	-to-	-bo-	-łe-	dos-
=9	=9	=9	=9	=9	=9	=9	=9	=9	=9	=9	=9	=9	=9	=9	=9	=9	=9	=9	=9	=9	=9	=9	=9	=9	=9	=9	=9	=9	=9	=9	=9	=9	=9
1D\	#	1a/	1ff#X\	1D\	-wy	-sci:	-gie	-go,	-tać,	1d\	-wy	-sci	-gie	-go	-tać,	1f#X\	-wy	-sci	-gie	-go	-tać,	1a\	-wy,	-sci,	-gie,	-go,	-tać,	1a\	-wy,	-sci,	-gie	-go,	-tać
!LO:LB:g=original	!	!LO:LB:g=original	!LO:LB:g=original	!	!	!	!	!	!	!LO:LB:g=original	!	!	!	!	!	!LO:LB:g=original	!	!	!	!	!	!	!	!	!	!	!	!	!	!	!	!	!
=10!|:	=10!|:	=10!|:	=10!|:	=10!|:	=10!|:	=10!|:	=10!|:	=10!|:	=10!|:	=10!|:	=10!|:	=10!|:	=10!|:	=10!|:	=10!|:	=10!|:	=10!|:	=10!|:	=10!|:	=10!|:	=10!|:	=10!|:	=10!|:	=10!|:	=10!|:	=10!|:	=10!|:	=10!|:	=10!|:	=10!|:	=10!|:	=10!|:	=10!|:
*M3/2	*	*M3/2	*M3/2	*M3/2	*	*	*	*	*	*M3/2	*	*	*	*	*	*M3/2	*	*	*	*	*	*M3/2	*	*	*	*	*	*M3/2	*	*	*	*	*
2F\	.	2f/	2aa\	2F\	Wy-	Spuść	Day-	Na-	W	2c\	Wy-	Spuść	Day-	Na-	W	2a\	Wy-	Spuść	Day-	Na-	W	2f/	Wy-	Spuść	Day-	Na-	W	2f/	Wy-	Spuść	Day-	Na-	W
4F\	.	4f/	4aa\	4F\	-słu-	sie	-cie	-ro-	nie-	(2.c\	-słu-	sie	-cie	-ro-	nie-	(4a\	-słu-	sie	-cie	-ro-	nie-	(4f/	-słu-	sie	-cie	-ro-	nie-	(4f/	-słu-	sie	-cie	-ro-	nie-
4E\	.	4g/	4gg\	4E\	.	.	.	.	.	.	.	.	.	.	.	4g\	.	.	.	.	.	4g/	.	.	.	.	.	4g/	.	.	.	.	.
4F\	.	4a/	4aa\	4F\	.	.	.	.	-bie	.	.	.	.	.	.	4a\)	.	.	.	.	.	4a/	.	.	.	.	.	4a/	.	.	.	.	.
!	!	!	!	!	!	!	!	!	!	!	!	!	!	!	!	!	!	!	!	!	!	!LO:SIC:v:s==4bn	!	!	!	!	!	!LO:SIC:v:s==4bn	!	!	!	!	!
4D\	6\	4bn/	4ff\	4D\	.	.	.	.	.	4d\)	.	.	.	.	-bie	4fn\	.	.	.	.	-bie	4b-/)	.	.	.	.	-bie	4b-/)	.	.	.	.	-bie
=11	=11	=11	=11	=11	=11	=11	=11	=11	=11	=11	=11	=11	=11	=11	=11	=11	=11	=11	=11	=11	=11	=11	=11	=11	=11	=11	=11	=11	=11	=11	=11	=11	=11
2C/	n	2cc\	2ee\	2C,/	-chay	w na-	nam	-dze-	z a-	2G/	-chay	w na-	nam	-dZe-	z a-	2e,\	-chay	w na	nam	-dze-	z a-	2cc\	-chay	w na	nam	-dze-	z a-	2cc\	-chay	w na	nam	-dze-	z a-
4C/	.	1g/	4ee\	4C/	nasz	-sZe	Zba-	-nia	-nio-	1e\	nasz	-sZe	Zba-	-nia	-nio-	(4e\	nasz	sZe	Zba-	-nia	-nio-	1g\	nasz	sZe	Zba-	-nia	-nio-	1g\	nasz	sZe	Zba-	-nia	-nio-
4D/	.	.	4ff#X\	4D/	.	.	.	.	.	.	.	.	.	.	.	4f#X\	.	.	.	.	.	.	.	.	.	.	.	.	.	.	.	.	.
4E\	6	.	4gg\	4E/	.	.	.	.	.	.	.	.	.	.	.	4g\	.	.	.	.	.	.	.	.	.	.	.	.	.	.	.	.	.
4F#X\	7 5	.	4aa\	4F#X/	.	.	.	.	.	.	.	.	.	.	.	4a\)	.	.	.	.	.	.	.	.	.	.	.	.	.	.	.	.	.
=12	=12	=12	=12	=12	=12	=12	=12	=12	=12	=12	=12	=12	=12	=12	=12	=12	=12	=12	=12	=12	=12	=12	=12	=12	=12	=12	=12	=12	=12	=12	=12	=12	=12
*M2/2	*	*M2/2	*M2/2	*M2/2	*	*	*	*	*	*M2/2	*	*	*	*	*	*M2/2	*	*	*	*	*	*M2/2	*	*	*	*	*	*M2/2	*	*	*	*	*
*met(C|)	*	*met(C|)	*met(C|)	*met(C|)	*	*	*	*	*	*met(C|)	*	*	*	*	*	*met(C|)	*	*	*	*	*	*met(C|)	*	*	*	*	*	*met(C|)	*	*	*	*	*
2G\	-	2g/	2bb-X\	2G\	głos	głę-	wie-	Sy-	-ły,	2d\	głos	głę-	wie-	Sy-	-ły,	2b-X\	głos	głę-	wie-	Sy-	-ły	2g\	głos	głę-	wie-	Sy-	-ły	2g\	głos	głę-	wie-	Sy-	-ły
2F#X\	6	2a/	2aa\	2F#X\	pła-	-bo-	-nie	-na	Kro-	2d\	pła-	-bo-	-nie	-na	Kro-	2a\	pła-	-bo-	-nie	-na	Kro-	2a\	pła-	-bo-	-nie	-na	Kro-	2a\	pła-	-bo-	-nie	-na	Kro-
=13	=13	=13	=13	=13	=13	=13	=13	=13	=13	=13	=13	=13	=13	=13	=13	=13	=13	=13	=13	=13	=13	=13	=13	=13	=13	=13	=13	=13	=13	=13	=13	=13	=13
2G\	-	1b-X\	2gg\	2G\	-cZli-	-ko-	dro-	Twe-	-lo-	(2d\	-czli-	-ko-	dro-	Twe-	-lo-	1g\	-czli-	-ko-	dro-	Twe-	-lo-	1b-X\T	-czli-	-ko-	dro-	Twe-	-lo-	1b-X\T	-czli-	-ko-	dro-	Twe-	-lo-
2C#X/	-7 5	.	2een\	2C#X/	.	.	.	.	.	2en\)	.	.	.	.	.	.	.	.	.	.	.	.	.	.	.	.	.	.	.	.	.	.	.
=14	=14	=14	=14	=14	=14	=14	=14	=14	=14	=14	=14	=14	=14	=14	=14	=14	=14	=14	=14	=14	=14	=14	=14	=14	=14	=14	=14	=14	=14	=14	=14	=14	=14
!LO:TX:a:t=repetat	!	!	!	!LO:TX:a:t=repetat	!	!	!	!	!	!	!	!	!	!	!	!	!	!	!	!	!	!	!	!	!	!	!	!	!	!	!	!	!
1D\	#	1a/	1ff#X\	1D\	-wy.	-sci.	-gie.	-go.	-wać.	1d\	-wy.	-sci.	-gie.	-go.	-wać.	1f#X\	-wy.	-sci.	-gie.	-go.	-wać.	1a\	-wy.	-śći.	-gie.	-go.	-wać.	1a\	-wy.	-śći.	-gie.	-go.	-wàć.
=:|!	=:|!	=:|!	=:|!	=:|!	=:|!	=:|!	=:|!	=:|!	=:|!	=:|!	=:|!	=:|!	=:|!	=:|!	=:|!	=:|!	=:|!	=:|!	=:|!	=:|!	=:|!	=:|!	=:|!	=:|!	=:|!	=:|!	=:|!	=:|!	=:|!	=:|!	=:|!	=:|!	=:|!
*-	*-	*-	*-	*-	*-	*-	*-	*-	*-	*-	*-	*-	*-	*-	*-	*-	*-	*-	*-	*-	*-	*-	*-	*-	*-	*-	*-	*-	*-	*-	*-	*-	*-
!!!system-decoration: [(s1,s2,s3,s4,s5)][(s6,s7)]s8
!!!EED: Leszek Kubiak
!!!EEV: 2021-04-09
!!!ENC: Tomasz Grochalski
!!!END: 2021-03-22
